!!!OTL: ICH WEISS MIR EINEN ANGER BREIT
!!!ARE: Europa, Mitteleuropa, Deutschland
!!!SCT: E0143
!!!YEM: Copyright 1995, estate of Helmut Schaffrath.
**kern
*ICvox
*Ivox
*M4/4
*k[b-]
*F:
{4d
=1
4f
4f
4g
4g
=2
4a
4a
4a}
{4a
=3
4g
4a
4b-
4b-
=4
4a
4a
4g}
{4g
=5
4a
4a
4f
4f
=6
4e
4d
4c}
{4c
=7
4e
4f
4e
4d
=8
4g
4a
4b-}
{4b-
=9
4a
8g
8f
4e
4g
=10
8b-
8a
4g
4f}
==
!!!AGN: erzaehlendes Volks - Lied, Scherz, Schwank, betrogener Ehemann     Ballade ?
!!!ONB: ESAC (Essen Associative Code) Database: ERK1
!!!AMT: simple quadruple
!!!AIN: vox
!!!EED: Helmut Schaffrath
!!!EEV: 1.0
*-
!!!title: @{OTL} [@{SCT}]
